X:245
T:J'ay veu la beaulté, m'amye (Chanson 20)
S:from bay20.MID
C:Manuscript de Bayeux (fin XVe)
R:Chanson
M:4/4
L:1/8
Q:1/4=100
K:F 
V:1
D2 D2 F2 A2 | A2 A2 G2 F2 | G2 G2 A3G | FE/2D/2 E2 D4 | 
D2 D2 F2 A2 | A2 A2 G2 F2 | G3G2<A2G | FE/2D/2 E2 D4 | 
A3A F2 A2 | G2 G2 F4 | G3G2<A2G | FE D2 C4 | 
D2 D2 F2 A2 | A2 A2 G2 F2 | G3G2<A2G | FE/2D/2 EE D2zG | 
G3/2F/2 ED C2zG | G3/2F/2 ED C2zC | F2 G2 A3G | FE/2D/2 E2 D2zF | 
C2 D2 C2zC | F2 G2 A3G | FE/2D/2 E2 D4 |]





